X: 37480
T: Slievman's
R: hornpipe
M: 4/4
K: Gmajor
A2|{A}GDB,D G,DB,D|GBAG {EF}E2 EF|GBdB gdBd|cBAG Fedc|
BGDG {EF}EDB,D|GBAG (E/F/G) DE|GBdg (e/f/g) dc|B2 G2 G2:|
|:Bc|dg {/a}g/f/g bg {/a}g/f/g|dgbg ageg|a^gab c'ba=g|fgfe dgBc|
dg {/a}g/f/g bg {/a}g/f/g|dgbg (e/f/g) dc|(B/c/d) gd BdAc|B2 G2G2:|

